X:184
T:Reel 184
M:4/4
K:Dmaj
L:1/8
ed|cAAB cded|cAGE EDDd|eAAB cdeg||fdec dfed:||2 (3def ec d2|de|f2fa e2eg|fded cAAg|f2fa e2eg|fdec d2de|f2fa e2eg|fded cAAg|f3f eaag|fdec d2|
